;FLAVOR:Marlin
;TIME:1141
;Filament used: 1.63729m
;Layer height: 0.2
;Generated with Cura_SteamEngine 4.0.0
M140 S60
M105
M190 S60
M104 S195
M105
M109 S195
M82 ;absolute extrusion mode
G28 ;Home
G90
G1 Z15.0 F6000 ;Move the platform down 15mm
;Prime the extruder
G92 E0
G1 F200 E3
G92 E0
G92 E0
G1 F3600 E-6.5
;LAYER_COUNT:100
;LAYER:0
M107
G0 F3600 X72.365 Y72.007 Z0.3
;TYPE:SKIRT
G1 F3600 E0
G1 F1800 X72.815 Y71.665 E0.03384
G1 X73.308 Y71.389 E0.06766
G1 X73.836 Y71.185 E0.10155
G1 X74.386 Y71.058 E0.13535
G1 X75.009 Y71.009 E0.17276
G1 X94.991 Y71.01 E1.36905
G1 X95.555 Y71.05 E1.4029
G1 X96.108 Y71.169 E1.43676
G1 X96.638 Y71.365 E1.47059
G1 X97.136 Y71.633 E1.50445
G1 X97.59 Y71.97 E1.5383
G1 X97.993 Y72.366 E1.57212
G1 X98.336 Y72.816 E1.606
G1 X98.611 Y73.309 E1.6398
G1 X98.815 Y73.837 E1.67368
G1 X98.942 Y74.388 E1.70754
G1 X98.991 Y75.01 E1.74489
G1 X98.991 Y94.991 E2.94112
G1 X98.951 Y95.555 E2.97497
G1 X98.832 Y96.108 E3.00883
G1 X98.636 Y96.638 E3.04266
G1 X98.368 Y97.135 E3.07647
G1 X98.032 Y97.59 E3.11033
G1 X97.635 Y97.993 E3.1442
G1 X97.185 Y98.335 E3.17804
G1 X96.692 Y98.611 E3.21186
G1 X96.164 Y98.815 E3.24575
G1 X95.614 Y98.942 E3.27954
G1 X94.991 Y98.991 E3.31696
G1 X75.009 Y98.991 E4.51324
G1 X74.445 Y98.951 E4.54709
G1 X73.892 Y98.832 E4.58096
G1 X73.362 Y98.636 E4.61479
G1 X72.865 Y98.368 E4.64859
G1 X72.41 Y98.032 E4.68246
G1 X72.007 Y97.635 E4.71632
G1 X71.665 Y97.185 E4.75016
G1 X71.389 Y96.692 E4.78399
G1 X71.185 Y96.164 E4.81787
G1 X71.058 Y95.614 E4.85167
G1 X71.009 Y94.991 E4.88908
G1 X71.009 Y75.009 E6.08537
G1 X71.049 Y74.445 E6.11922
G1 X71.168 Y73.892 E6.15308
G1 X71.364 Y73.362 E6.18692
G1 X71.632 Y72.865 E6.22072
G1 X71.968 Y72.41 E6.25458
G1 X72.365 Y72.007 E6.28845
G0 F3600 X72.756 Y72.201
G1 F1800 X73.198 Y71.898 E6.32053
G1 X73.681 Y71.663 E6.35269
G1 X74.192 Y71.503 E6.38475
G1 X74.722 Y71.42 E6.41686
G1 X75.009 Y71.409 E6.43406
G1 X94.991 Y71.41 E7.63035
G1 X95.526 Y71.45 E7.66246
G1 X96.049 Y71.569 E7.69458
G1 X96.548 Y71.764 E7.72665
G1 X97.013 Y72.032 E7.75878
G1 X97.433 Y72.365 E7.79087
G1 X97.799 Y72.757 E7.82298
G1 X98.103 Y73.199 E7.85509
G1 X98.337 Y73.682 E7.88723
G1 X98.497 Y74.194 E7.91934
G1 X98.58 Y74.723 E7.9514
G1 X98.591 Y75.01 E7.96859
G1 X98.591 Y94.991 E9.16482
G1 X98.551 Y95.526 E9.19694
G1 X98.432 Y96.049 E9.22905
G1 X98.237 Y96.548 E9.26112
G1 X97.969 Y97.013 E9.29326
G1 X97.636 Y97.433 E9.32535
G1 X97.244 Y97.799 E9.35745
G1 X96.802 Y98.102 E9.38954
G1 X96.319 Y98.337 E9.42169
G1 X95.808 Y98.497 E9.45375
G1 X95.278 Y98.58 E9.48587
G1 X94.991 Y98.591 E9.50306
G1 X75.009 Y98.591 E10.69935
G1 X74.474 Y98.551 E10.73147
G1 X73.951 Y98.432 E10.76358
G1 X73.452 Y98.237 E10.79565
G1 X72.987 Y97.969 E10.82778
G1 X72.567 Y97.636 E10.85987
G1 X72.201 Y97.244 E10.89198
G1 X71.898 Y96.802 E10.92406
G1 X71.663 Y96.319 E10.95622
G1 X71.503 Y95.808 E10.98828
G1 X71.42 Y95.278 E11.0204
G1 X71.409 Y94.991 E11.03759
G1 X71.409 Y75.009 E12.23388
G1 X71.449 Y74.474 E12.266
G1 X71.568 Y73.951 E12.29811
G1 X71.763 Y73.452 E12.33018
G1 X72.031 Y72.987 E12.36231
G1 X72.364 Y72.567 E12.3944
G1 X72.756 Y72.201 E12.42651
G0 F3600 X72.758 Y72.734
G1 F1800 X73.145 Y72.408 E12.4568
G1 X73.578 Y72.147 E12.48707
G1 X74.046 Y71.957 E12.51731
G1 X74.539 Y71.844 E12.54759
G1 X75.009 Y71.809 E12.57581
G1 X94.991 Y71.81 E13.77209
G1 X95.495 Y71.85 E13.80236
G1 X95.987 Y71.969 E13.83267
G1 X96.453 Y72.164 E13.86291
G1 X96.883 Y72.429 E13.89315
G1 X97.266 Y72.76 E13.92346
G1 X97.592 Y73.146 E13.9537
G1 X97.853 Y73.579 E13.98397
G1 X98.043 Y74.048 E14.01427
G1 X98.156 Y74.54 E14.04449
G1 X98.191 Y75.01 E14.0727
G1 X98.191 Y94.991 E15.26893
G1 X98.151 Y95.495 E15.2992
G1 X98.032 Y95.986 E15.32945
G1 X97.838 Y96.453 E15.35972
G1 X97.572 Y96.883 E15.38999
G1 X97.242 Y97.266 E15.42026
G1 X96.855 Y97.592 E15.45055
G1 X96.422 Y97.853 E15.48082
G1 X95.954 Y98.043 E15.51106
G1 X95.461 Y98.156 E15.54134
G1 X94.991 Y98.191 E15.56956
G1 X75.009 Y98.191 E16.76584
G1 X74.505 Y98.151 E16.79611
G1 X74.014 Y98.032 E16.82636
G1 X73.547 Y97.838 E16.85663
G1 X73.117 Y97.572 E16.88691
G1 X72.734 Y97.242 E16.91717
G1 X72.408 Y96.855 E16.94747
G1 X72.147 Y96.422 E16.97773
G1 X71.957 Y95.954 E17.00797
G1 X71.844 Y95.461 E17.03825
G1 X71.809 Y94.991 E17.06647
G1 X71.809 Y75.009 E18.26276
G1 X71.849 Y74.505 E18.29303
G1 X71.968 Y74.014 E18.32327
G1 X72.162 Y73.547 E18.35355
G1 X72.428 Y73.117 E18.38382
G1 X72.758 Y72.734 E18.41408
G1 F3600 E11.91408
G1 F300 Z1.3
;MESH:xyzCalibration_cube.stl
G0 F3600 X94.4 Y94.4 Z1.3
;TYPE:WALL-INNER
G1 F300 Z0.3
G1 F3600 E18.41408
G1 F1800 X75.6 Y94.4 E19.53961
G1 X75.6 Y75.6 E20.66513
G1 X94.4 Y75.6 E21.79065
G1 X94.4 Y94.4 E22.91618
G0 F3600 X94.8 Y94.8
;TYPE:WALL-OUTER
G1 F1800 X75.2 Y94.8 E24.08959
G1 X75.2 Y75.2 E25.26301
G1 X94.8 Y75.2 E26.43643
G1 X94.8 Y94.8 E27.60985
G0 F3600 X94.6 Y94.8
G0 X94.01 Y94.01
;TYPE:SKIN
G1 F1800 X75.99 Y94.01 E28.68867
G1 X75.99 Y75.99 E29.7675
G1 X94.01 Y75.99 E30.84632
G1 X94.01 Y94.01 E31.92515
G0 F3600 X93.829 Y76.293
G1 F1800 X93.706 Y76.17 E31.93556
G0 F3600 X93.14 Y76.17
G1 F1800 X93.829 Y76.858 E31.99386
G0 F3600 X93.829 Y77.424
G1 F1800 X92.575 Y76.17 E32.10003
G0 F3600 X92.009 Y76.17
G1 F1800 X93.829 Y77.99 E32.25412
G0 F3600 X93.829 Y78.556
G1 F1800 X91.443 Y76.17 E32.45614
G0 F3600 X90.878 Y76.17
G1 F1800 X93.829 Y79.121 E32.70599
G0 F3600 X93.829 Y79.687
G1 F1800 X90.312 Y76.17 E33.00376
G0 F3600 X89.746 Y76.17
G1 F1800 X93.829 Y80.253 E33.34945
G0 F3600 X93.829 Y80.818
G1 F1800 X89.181 Y76.17 E33.74298
G0 F3600 X88.615 Y76.17
G1 F1800 X93.829 Y81.384 E34.18443
G0 F3600 X93.829 Y81.95
G1 F1800 X88.049 Y76.17 E34.6738
G0 F3600 X87.483 Y76.17
G1 F1800 X93.829 Y82.515 E35.21106
G0 F3600 X93.829 Y83.081
G1 F1800 X86.918 Y76.17 E35.79619
G0 F3600 X86.352 Y76.17
G1 F1800 X93.829 Y83.647 E36.42924
G0 F3600 X93.829 Y84.212
G1 F1800 X85.786 Y76.17 E37.11017
G0 F3600 X85.221 Y76.17
G1 F1800 X93.829 Y84.778 E37.83898
G0 F3600 X93.829 Y85.344
G1 F1800 X84.655 Y76.17 E38.61571
G0 F3600 X84.089 Y76.17
G1 F1800 X93.829 Y85.909 E39.44032
G0 F3600 X93.829 Y86.475
G1 F1800 X83.524 Y76.17 E40.3128
G0 F3600 X82.958 Y76.17
G1 F1800 X93.829 Y87.041 E41.23321
G0 F3600 X93.829 Y87.606
G1 F1800 X82.392 Y76.17 E42.2015
G0 F3600 X81.827 Y76.17
G1 F1800 X93.829 Y88.172 E43.21767
G0 F3600 X93.829 Y88.738
G1 F1800 X81.261 Y76.17 E44.28176
G0 F3600 X80.695 Y76.17
G1 F1800 X93.829 Y89.304 E45.39377
G0 F3600 X93.829 Y89.869
G1 F1800 X80.13 Y76.17 E46.55361
G0 F3600 X79.564 Y76.17
G1 F1800 X93.829 Y90.435 E47.76138
G0 F3600 X93.829 Y91.001
G1 F1800 X78.998 Y76.17 E49.01707
G0 F3600 X78.432 Y76.17
G1 F1800 X93.829 Y91.566 E50.32064
G0 F3600 X93.829 Y92.132
G1 F1800 X77.867 Y76.17 E51.67208
G0 F3600 X77.301 Y76.17
G1 F1800 X93.829 Y92.698 E53.07145
G0 F3600 X93.829 Y93.263
G1 F1800 X76.735 Y76.17 E54.5187
G0 F3600 X76.169 Y76.169
G1 F1800 X93.829 Y93.829 E56.01391
G0 F3600 X93.263 Y93.829
G1 F1800 X76.169 Y76.735 E57.4612
G0 F3600 X76.169 Y77.3
G1 F1800 X92.698 Y93.829 E58.86065
G0 F3600 X92.132 Y93.829
G1 F1800 X76.169 Y77.866 E60.21218
G0 F3600 X76.169 Y78.432
G1 F1800 X91.566 Y93.829 E61.51579
G0 F3600 X91.001 Y93.829
G1 F1800 X76.169 Y78.997 E62.77156
G0 F3600 X76.169 Y79.563
G1 F1800 X90.435 Y93.829 E63.97941
G0 F3600 X89.869 Y93.829
G1 F1800 X76.169 Y80.129 E65.13934
G0 F3600 X76.169 Y80.695
G1 F1800 X89.304 Y93.829 E66.2514
G0 F3600 X88.738 Y93.829
G1 F1800 X76.169 Y81.26 E67.31557
G0 F3600 X76.169 Y81.826
G1 F1800 X88.172 Y93.829 E68.33182
G0 F3600 X87.606 Y93.829
G1 F1800 X76.169 Y82.392 E69.30015
G0 F3600 X76.169 Y82.957
G1 F1800 X87.041 Y93.829 E70.22065
G0 F3600 X86.475 Y93.829
G1 F1800 X76.169 Y83.523 E71.09322
G0 F3600 X76.169 Y84.089
G1 F1800 X85.909 Y93.829 E71.91787
G0 F3600 X85.344 Y93.829
G1 F1800 X76.169 Y84.654 E72.69468
G0 F3600 X76.169 Y85.22
G1 F1800 X84.778 Y93.829 E73.42358
G0 F3600 X84.212 Y93.829
G1 F1800 X76.169 Y85.786 E74.10455
G0 F3600 X76.169 Y86.351
G1 F1800 X83.647 Y93.829 E74.73769
G0 F3600 X83.081 Y93.829
G1 F1800 X76.169 Y86.917 E75.3229
G0 F3600 X76.169 Y87.483
G1 F1800 X82.515 Y93.829 E75.8602
G0 F3600 X81.95 Y93.829
G1 F1800 X76.169 Y88.048 E76.34965
G0 F3600 X76.169 Y88.614
G1 F1800 X81.384 Y93.829 E76.79119
G0 F3600 X80.818 Y93.829
G1 F1800 X76.169 Y89.18 E77.1848
G0 F3600 X76.169 Y89.745
G1 F1800 X80.253 Y93.829 E77.53058
G0 F3600 X79.687 Y93.829
G1 F1800 X76.169 Y90.311 E77.82844
G0 F3600 X76.169 Y90.877
G1 F1800 X79.121 Y93.829 E78.07837
G0 F3600 X78.556 Y93.829
G1 F1800 X76.169 Y91.443 E78.28043
G0 F3600 X76.169 Y92.008
G1 F1800 X77.99 Y93.829 E78.43461
G0 F3600 X77.424 Y93.829
G1 F1800 X76.169 Y92.574 E78.54086
G0 F3600 X76.169 Y93.14
G1 F1800 X76.858 Y93.829 E78.5992
G0 F3600 X76.293 Y93.829
G1 F1800 X76.169 Y93.705 E78.6097
;MESH:NONMESH
G0 F3600 X94.33 Y94.33
G0 X94.4 Y94.4
;TIME_ELAPSED:55.453095
;LAYER:1
M140 S60
M106 S255
;MESH:xyzCalibration_cube.stl
G0 F5400 X94.4 Y94.4 Z0.5
;TYPE:WALL-INNER
G1 F2700 X75.6 Y94.4 E79.36005
G1 X75.6 Y75.6 E80.11039
G1 X94.4 Y75.6 E80.86074
G1 X94.4 Y94.4 E81.61109
G0 F5400 X94.8 Y94.8
;TYPE:WALL-OUTER
G1 F1800 X75.2 Y94.8 E82.39337
G1 X75.2 Y75.2 E83.17565
G1 X94.8 Y75.2 E83.95793
G1 X94.8 Y94.8 E84.74021
G0 F5400 X94.6 Y94.8
G0 X94.01 Y94.01
;TYPE:SKIN
G1 F1800 X75.99 Y94.01 E85.45942
G1 X75.99 Y75.99 E86.17864
G1 X94.01 Y75.99 E86.89786
G1 X94.01 Y94.01 E87.61707
G0 F5400 X93.412 Y93.829
G1 F1800 X93.829 Y93.412 E87.64061
G0 F5400 X93.829 Y92.846
G1 F1800 X92.846 Y93.829 E87.6961
G0 F5400 X92.28 Y93.829
G1 F1800 X93.829 Y92.28 E87.78353
G0 F5400 X93.829 Y91.715
G1 F1800 X91.715 Y93.829 E87.90285
G0 F5400 X91.149 Y93.829
G1 F1800 X93.829 Y91.149 E88.05412
G0 F5400 X93.829 Y90.583
G1 F1800 X90.583 Y93.829 E88.23734
G0 F5400 X90.018 Y93.829
G1 F1800 X93.829 Y90.018 E88.45245
G0 F5400 X93.829 Y89.452
G1 F1800 X89.452 Y93.829 E88.69951
G0 F5400 X88.886 Y93.829
G1 F1800 X93.829 Y88.886 E88.97851
G0 F5400 X93.829 Y88.321
G1 F1800 X88.321 Y93.829 E89.28941
G0 F5400 X87.755 Y93.829
G1 F1800 X93.829 Y87.755 E89.63225
G0 F5400 X93.829 Y87.189
G1 F1800 X87.189 Y93.829 E90.00704
G0 F5400 X86.624 Y93.829
G1 F1800 X93.829 Y86.624 E90.41372
G0 F5400 X93.829 Y86.058
G1 F1800 X86.058 Y93.829 E90.85235
G0 F5400 X85.492 Y93.829
G1 F1800 X93.829 Y85.492 E91.32293
G0 F5400 X93.829 Y84.927
G1 F1800 X84.927 Y93.829 E91.82539
G0 F5400 X84.361 Y93.829
G1 F1800 X93.829 Y84.361 E92.35981
G0 F5400 X93.829 Y83.795
G1 F1800 X83.795 Y93.829 E92.92617
G0 F5400 X83.23 Y93.829
G1 F1800 X93.829 Y83.23 E93.52442
G0 F5400 X93.829 Y82.664
G1 F1800 X82.664 Y93.829 E94.15462
G0 F5400 X82.098 Y93.829
G1 F1800 X93.829 Y82.098 E94.81677
G0 F5400 X93.829 Y81.532
G1 F1800 X81.532 Y93.829 E95.51087
G0 F5400 X80.967 Y93.829
G1 F1800 X93.829 Y80.967 E96.23686
G0 F5400 X93.829 Y80.401
G1 F1800 X80.401 Y93.829 E96.99479
G0 F5400 X79.835 Y93.829
G1 F1800 X93.829 Y79.835 E97.78467
G0 F5400 X93.829 Y79.27
G1 F1800 X79.27 Y93.829 E98.60644
G0 F5400 X78.704 Y93.829
G1 F1800 X93.829 Y78.704 E99.46016
G0 F5400 X93.829 Y78.138
G1 F1800 X78.138 Y93.829 E100.34583
G0 F5400 X77.573 Y93.829
G1 F1800 X93.829 Y77.573 E101.26339
G0 F5400 X93.829 Y77.007
G1 F1800 X77.007 Y93.829 E102.2129
G0 F5400 X76.441 Y93.829
G1 F1800 X93.829 Y76.441 E103.19435
G0 F5400 X93.536 Y76.169
G1 F1800 X76.17 Y93.535 E104.17456
G0 F5400 X76.17 Y92.969
G1 F1800 X92.97 Y76.169 E105.12283
G0 F5400 X92.404 Y76.169
G1 F1800 X76.17 Y92.404 E106.03917
G0 F5400 X76.17 Y91.838
G1 F1800 X91.839 Y76.169 E106.9236
G0 F5400 X91.273 Y76.169
G1 F1800 X76.17 Y91.272 E107.77608
G0 F5400 X76.17 Y90.706
G1 F1800 X90.707 Y76.169 E108.59661
G0 F5400 X90.141 Y76.169
G1 F1800 X76.17 Y90.141 E109.38522
G0 F5400 X76.17 Y89.575
G1 F1800 X89.576 Y76.169 E110.14191
G0 F5400 X89.01 Y76.169
G1 F1800 X76.17 Y89.009 E110.86666
G0 F5400 X76.17 Y88.444
G1 F1800 X88.444 Y76.169 E111.55948
G0 F5400 X87.879 Y76.169
G1 F1800 X76.17 Y87.878 E112.22039
G0 F5400 X76.17 Y87.312
G1 F1800 X87.313 Y76.169 E112.84935
G0 F5400 X86.747 Y76.169
G1 F1800 X76.17 Y86.747 E113.44639
G0 F5400 X76.17 Y86.181
G1 F1800 X86.182 Y76.169 E114.01151
G0 F5400 X85.616 Y76.169
G1 F1800 X76.17 Y85.615 E114.54468
G0 F5400 X76.17 Y85.05
G1 F1800 X85.05 Y76.169 E115.04594
G0 F5400 X84.485 Y76.169
G1 F1800 X76.17 Y84.484 E115.51527
G0 F5400 X76.17 Y83.918
G1 F1800 X83.919 Y76.169 E115.95266
G0 F5400 X83.353 Y76.169
G1 F1800 X76.17 Y83.353 E116.35813
G0 F5400 X76.17 Y82.787
G1 F1800 X82.788 Y76.169 E116.73168
G0 F5400 X82.222 Y76.169
G1 F1800 X76.17 Y82.221 E117.07328
G0 F5400 X76.17 Y81.655
G1 F1800 X81.656 Y76.169 E117.38293
G0 F5400 X81.091 Y76.169
G1 F1800 X76.17 Y81.09 E117.66069
G0 F5400 X76.17 Y80.524
G1 F1800 X80.525 Y76.169 E117.90651
G0 F5400 X79.959 Y76.169
G1 F1800 X76.17 Y79.958 E118.12037
G0 F5400 X76.17 Y79.393
G1 F1800 X79.393 Y76.169 E118.30232
G0 F5400 X78.828 Y76.169
G1 F1800 X76.17 Y78.827 E118.45235
G0 F5400 X76.17 Y78.261
G1 F1800 X78.262 Y76.169 E118.57043
G0 F5400 X77.696 Y76.169
G1 F1800 X76.17 Y77.696 E118.6566
G0 F5400 X76.17 Y77.13
G1 F1800 X77.131 Y76.169 E118.71084
G0 F5400 X76.565 Y76.169
G1 F1800 X76.17 Y76.564 E118.73313
;MESH:NONMESH
G0 F5400 X94.33 Y94.33
G0 X94.4 Y94.4
;TIME_ELAPSED:89.880042
;LAYER:2
;MESH:xyzCalibration_cube.stl
G0 F7200 X94.4 Y94.4 Z0.7
;TYPE:WALL-INNER
G1 F3600 X75.6 Y94.4 E119.48348
G1 X75.6 Y75.6 E120.23383
G1 X94.4 Y75.6 E120.98418
G1 X94.4 Y94.4 E121.73453
G0 F7200 X94.8 Y94.8
;TYPE:WALL-OUTER
G1 F1800 X75.2 Y94.8 E122.51681
G1 X75.2 Y75.2 E123.29909
G1 X94.8 Y75.2 E124.08136
G1 X94.8 Y94.8 E124.86364
G0 F7200 X94.6 Y94.8
G0 X94.01 Y94.01
;TYPE:SKIN
G1 F1800 X75.99 Y94.01 E125.58286
G1 X75.99 Y75.99 E126.30208
G1 X94.01 Y75.99 E127.02129
G1 X94.01 Y94.01 E127.74051
G0 F7200 X93.829 Y76.293
G1 F1800 X93.706 Y76.17 E127.74745
G0 F7200 X93.14 Y76.17
G1 F1800 X93.829 Y76.858 E127.78632
G0 F7200 X93.829 Y77.424
G1 F1800 X92.575 Y76.17 E127.8571
G0 F7200 X92.009 Y76.17
G1 F1800 X93.829 Y77.99 E127.95983
G0 F7200 X93.829 Y78.556
G1 F1800 X91.443 Y76.17 E128.0945
G0 F7200 X90.878 Y76.17
G1 F1800 X93.829 Y79.121 E128.26107
G0 F7200 X93.829 Y79.687
G1 F1800 X90.312 Y76.17 E128.45958
G0 F7200 X89.746 Y76.17
G1 F1800 X93.829 Y80.253 E128.69005
G0 F7200 X93.829 Y80.818
G1 F1800 X89.181 Y76.17 E128.9524
G0 F7200 X88.615 Y76.17
G1 F1800 X93.829 Y81.384 E129.2467
G0 F7200 X93.829 Y81.95
G1 F1800 X88.049 Y76.17 E129.57295
G0 F7200 X87.483 Y76.17
G1 F1800 X93.829 Y82.515 E129.93112
G0 F7200 X93.829 Y83.081
G1 F1800 X86.918 Y76.17 E130.3212
G0 F7200 X86.352 Y76.17
G1 F1800 X93.829 Y83.647 E130.74324
G0 F7200 X93.829 Y84.212
G1 F1800 X85.786 Y76.17 E131.19719
G0 F7200 X85.221 Y76.17
G1 F1800 X93.829 Y84.778 E131.68306
G0 F7200 X93.829 Y85.344
G1 F1800 X84.655 Y76.17 E132.20088
G0 F7200 X84.089 Y76.17
G1 F1800 X93.829 Y85.909 E132.75062
G0 F7200 X93.829 Y86.475
G1 F1800 X83.524 Y76.17 E133.33228
G0 F7200 X82.958 Y76.17
G1 F1800 X93.829 Y87.041 E133.94589
G0 F7200 X93.829 Y87.606
G1 F1800 X82.392 Y76.17 E134.59141
G0 F7200 X81.827 Y76.17
G1 F1800 X93.829 Y88.172 E135.26886
G0 F7200 X93.829 Y88.738
G1 F1800 X81.261 Y76.17 E135.97825
G0 F7200 X80.695 Y76.17
G1 F1800 X93.829 Y89.304 E136.71959
G0 F7200 X93.829 Y89.869
G1 F1800 X80.13 Y76.17 E137.49282
G0 F7200 X79.564 Y76.17
G1 F1800 X93.829 Y90.435 E138.298
G0 F7200 X93.829 Y91.001
G1 F1800 X78.998 Y76.17 E139.13512
G0 F7200 X78.432 Y76.17
G1 F1800 X93.829 Y91.566 E140.00417
G0 F7200 X93.829 Y92.132
G1 F1800 X77.867 Y76.17 E140.90513
G0 F7200 X77.301 Y76.17
G1 F1800 X93.829 Y92.698 E141.83804
G0 F7200 X93.829 Y93.263
G1 F1800 X76.735 Y76.17 E142.80288
G0 F7200 X76.169 Y76.169
G1 F1800 X93.829 Y93.829 E143.79968
G0 F7200 X93.263 Y93.829
G1 F1800 X76.169 Y76.735 E144.76454
G0 F7200 X76.169 Y77.3
G1 F1800 X92.698 Y93.829 E145.69751
G0 F7200 X92.132 Y93.829
G1 F1800 X76.169 Y77.866 E146.59853
G0 F7200 X76.169 Y78.432
G1 F1800 X91.566 Y93.829 E147.4676
G0 F7200 X91.001 Y93.829
G1 F1800 X76.169 Y78.997 E148.30479
G0 F7200 X76.169 Y79.563
G1 F1800 X90.435 Y93.829 E149.11002
G0 F7200 X89.869 Y93.829
G1 F1800 X76.169 Y80.129 E149.88331
G0 F7200 X76.169 Y80.695
G1 F1800 X89.304 Y93.829 E150.62468
G0 F7200 X88.738 Y93.829
